X:20
T:Les garons de Neuville
R:Bourre  3 temps
A:Massif Central
O:France
M:3/4
L:1/4
Q:1/4=240
K:F
FG>c|c>dc|BGA|F2E|FG>c|c>dc|BGA|G3:|
|:CFF|E>FG|AGF|EC2|CFF|E>FG|AFE|F2:||
